svg/Social/twitter.svg

<svg xmlns="http://www.w3.org/2000/svg" width="24" height="24" viewBox="0 0 24 24">
    <path d="M19.8906 7.34375C19.7969 7.67188 19.4001 8.50548 18.7219 9.29669C18.2698 17.9717 9.84907 20.7974 4.08456 17.8869C3.29335 16.8414 6.93856 17.2653 8.26666 15.259C3.23684 12.6876 3.63244 5.82103 4.64971 6.1036C7.02333 9.29669 10.8381 9.57926 11.4597 9.29669C11.4597 8.562 11.1489 6.97958 12.8726 5.65148C13.8616 4.94505 15.9297 4.3125 17.8047 6.34375C18.125 6.55469 18.5859 6.64844 19.2734 6.49219C19.6797 6.28125 20.2262 6.427 19.9453 7.15625" fill="none" stroke="currentColor" stroke-width="2" stroke-linecap="round" stroke-linejoin="round" stroke-dasharray="62" stroke-dashoffset="62">
        <animate attributeName="stroke-dashoffset" values="62;0" dur="0.6s" fill="freeze" />
    </path>
</svg>

<svg xmlns="http://www.w3.org/2000/svg" width="24" height="24" viewBox="0 0 24 24">
	<g fill="none" stroke="currentColor" stroke-width="2" stroke-linecap="round" stroke-linejoin="round">
		<path d="M19.89 7.34c-0.09 0.33 -0.49 1.16 -1.17 1.95c-0.45 8.68 -8.87 11.5 -14.64 8.59c-0.79 -1.05 2.85 -0.62 4.18 -2.63c-5.03 -2.57 -4.63 -9.44 -3.62 -9.16c2.37 3.19 6.19 3.48 6.81 3.19c0 -0.73 -0.31 -2.32 1.41 -3.65c0.99 -0.71 3.06 -1.34 4.93 0.69c0.32 0.21 0.78 0.3 1.47 0.15c0.41 -0.21 0.95 -0.07 0.67 0.66Z" stroke-dasharray="64" stroke-dashoffset="64">
			<animate attributeName="stroke-dashoffset" values="64;0" dur="0.6s" fill="freeze" />
		</path>
	</g>
</svg>
